icon.svg

<svg xmlns="http://www.w3.org/2000/svg"  viewBox="0 0 50 50" width="150px" height="150px"><path d="M 25 4.5 C 15.204 4.5 5.9439688 11.985969 3.9179688 21.542969 C 3.9119687 21.571969 3.9200156 21.599906 3.9160156 21.628906 C 1.5620156 23.233906 -0.04296875 26.383 -0.04296875 30 C -0.04296875 35.238 3.3210312 39.5 7.4570312 39.5 C 7.7850313 39.5 8.0913438 39.339313 8.2773438 39.070312 C 8.4643437 38.800312 8.5065781 38.456438 8.3925781 38.148438 C 8.3775781 38.110438 6.9550781 34.244 6.9550781 29.5 C 6.9550781 24.506 8.3091719 22.022187 8.3261719 21.992188 C 8.5011719 21.683187 8.4983125 21.305047 8.3203125 20.998047 C 8.1433125 20.689047 7.8130313 20.5 7.4570312 20.5 C 7.0350313 20.5 6.62275 20.554625 6.21875 20.640625 C 8.58675 12.613625 16.57 6.5 25 6.5 C 32.992 6.5 40.688641 12.044172 43.431641 19.576172 C 43.133641 19.530172 42.831438 19.5 42.523438 19.5 C 42.169438 19.5 41.841109 19.689094 41.662109 19.996094 C 41.482109 20.302094 41.481297 20.683187 41.654297 20.992188 C 41.668297 21.016188 43.023437 23.5 43.023438 28.5 C 43.023438 32.44 42.045078 35.767641 41.705078 36.806641 C 40.558078 37.740641 38.815344 39.034297 36.777344 40.154297 C 36.016344 39.305297 34.839391 38.873437 33.650391 39.148438 L 31.867188 39.558594 C 31.024188 39.751594 30.308609 40.262094 29.849609 40.996094 C 29.391609 41.728094 29.245453 42.5965 29.439453 43.4375 C 29.783453 44.9335 31.11975 45.949219 32.59375 45.949219 C 32.83275 45.949219 33.074359 45.923187 33.318359 45.867188 L 35.103516 45.455078 C 35.945516 45.262078 36.661141 44.752531 37.119141 44.019531 C 37.503141 43.406531 37.653984 42.698234 37.583984 41.990234 C 39.728984 40.828234 41.570453 39.481469 42.814453 38.480469 C 46.814453 38.285469 50.023438 34.114 50.023438 29 C 50.023438 25.237 48.284437 21.989172 45.773438 20.451172 C 45.769438 20.376172 45.777859 20.301563 45.755859 20.226562 C 43.152859 11.113563 34.423 4.5 25 4.5 z M 12 19 C 11.447 19 11 19.447 11 20 L 11 32 C 11 32.553 11.447 33 12 33 L 28.044922 33 C 27.540922 34.057 26.743578 35.482375 26.142578 36.484375 C 25.941578 36.819375 25.954828 37.2405 26.173828 37.5625 C 26.360828 37.8395 26.673 38 27 38 C 27.055 38 27.109063 37.995328 27.164062 37.986328 C 33.351062 36.955328 38.412 32.95125 38.625 32.78125 C 38.862 32.59125 39 32.304 39 32 L 39 20 C 39 19.447 38.553 19 38 19 L 12 19 z M 13 21 L 37 21 L 37 31.501953 C 35.952 32.266953 32.821953 34.393672 29.001953 35.513672 C 29.643953 34.334672 30.328469 32.955266 30.480469 32.197266 C 30.539469 31.903266 30.462438 31.598187 30.273438 31.367188 C 30.082438 31.135188 29.8 31 29.5 31 L 13 31 L 13 21 z M 44.121094 21.822266 C 46.378094 22.758266 48.023437 25.622 48.023438 29 C 48.023438 32.456 46.299891 35.373281 43.962891 36.238281 C 44.420891 34.565281 45.023438 31.747 45.023438 28.5 C 45.023438 25.445 44.556094 23.226266 44.121094 21.822266 z M 5.859375 22.822266 C 5.423375 24.225266 4.9570313 26.445 4.9570312 29.5 C 4.9570312 32.747 5.5595781 35.565281 6.0175781 37.238281 C 3.6805781 36.373281 1.9570312 33.456 1.9570312 30 C 1.9570312 26.622 3.602375 23.758266 5.859375 22.822266 z M 18.5 23 C 17.098 23 16 24.317 16 26 C 16 27.683 17.098 29 18.5 29 C 19.902 29 21 27.683 21 26 C 21 24.317 19.902 23 18.5 23 z M 31.5 23 C 30.098 23 29 24.317 29 26 C 29 27.683 30.098 29 31.5 29 C 32.902 29 34 27.683 34 26 C 34 24.317 32.902 23 31.5 23 z M 18.5 25 C 18.677 25 19 25.38 19 26 C 19 26.62 18.677 27 18.5 27 C 18.323 27 18 26.62 18 26 C 18 25.38 18.323 25 18.5 25 z M 31.5 25 C 31.677 25 32 25.38 32 26 C 32 26.62 31.677 27 31.5 27 C 31.323 27 31 26.62 31 26 C 31 25.38 31.323 25 31.5 25 z M 34.376953 41.064453 C 34.605953 41.064453 34.83225 41.128906 35.03125 41.253906 C 35.31025 41.428906 35.504125 41.702391 35.578125 42.025391 C 35.652125 42.348391 35.598828 42.678984 35.423828 42.958984 C 35.248828 43.237984 34.976297 43.433812 34.654297 43.507812 L 34.652344 43.507812 L 32.869141 43.917969 C 32.208141 44.071969 31.540672 43.654234 31.388672 42.990234 C 31.314672 42.668234 31.369922 42.337641 31.544922 42.056641 C 31.719922 41.777641 31.992453 41.581813 32.314453 41.507812 L 34.097656 41.097656 C 34.190656 41.076656 34.284953 41.064453 34.376953 41.064453 z"/></svg>

<?xml version="1.0" encoding="UTF-8"?>
<svg width="150px" height="150px" version="1.1" viewBox="0 0 50 50" xmlns="http://www.w3.org/2000/svg">
 <path d="m25 4.5c-9.796 0-19.056 7.486-21.082 17.043-0.0060001 0.029 0.0020468 0.056937-0.0019532 0.085937-2.354 1.605-3.959 4.7541-3.959 8.3711 0 5.238 3.364 9.5 7.5 9.5 0.328 0 0.63431-0.16069 0.82031-0.42969 0.187-0.27 0.22923-0.61387 0.11523-0.92187-0.015-0.038-1.4375-3.9044-1.4375-8.6484 0-4.994 1.3541-7.4778 1.3711-7.5078 0.175-0.309 0.17214-0.68714-0.0058594-0.99414-0.177-0.309-0.50728-0.49805-0.86328-0.49805-0.422 0-0.83428 0.054625-1.2383 0.14062 2.368-8.027 10.351-14.141 18.781-14.141 7.992 0 15.689 5.5442 18.432 13.076-0.298-0.046-0.6002-0.076172-0.9082-0.076172-0.354 0-0.68233 0.18909-0.86133 0.49609-0.18 0.306-0.18081 0.68709-0.007812 0.99609 0.014 0.024 1.3691 2.5078 1.3691 7.5078 0 3.94-0.97836 7.2676-1.3184 8.3066-1.147 0.934-2.8897 2.2277-4.9277 3.3477-0.761-0.849-1.938-1.2809-3.127-1.0059l-1.7832 0.41016c-0.843 0.193-1.5586 0.7035-2.0176 1.4375-0.458 0.732-0.60416 1.6004-0.41016 2.4414 0.344 1.496 1.6803 2.5117 3.1543 2.5117 0.239 0 0.48061-0.026032 0.72461-0.082031l1.7852-0.41211c0.842-0.193 1.5576-0.70255 2.0156-1.4355 0.384-0.613 0.53484-1.3213 0.46484-2.0293 2.145-1.162 3.9865-2.5088 5.2305-3.5098 4-0.195 7.209-4.3665 7.209-9.4805 0-3.763-1.739-7.0108-4.25-8.5488-4e-3 -0.075 0.004421-0.14961-0.017579-0.22461-2.603-9.113-11.333-15.727-20.756-15.727zm-13 14.5c-0.553 0-1 0.447-1 1v12c0 0.553 0.447 1 1 1h16.045c-0.504 1.057-1.3013 2.4824-1.9023 3.4844-0.201 0.335-0.18775 0.75612 0.03125 1.0781 0.187 0.277 0.49917 0.4375 0.82617 0.4375 0.055 0 0.10906-0.004672 0.16406-0.013672 6.187-1.031 11.248-5.0351 11.461-5.2051 0.237-0.19 0.375-0.47725 0.375-0.78125v-12c0-0.553-0.447-1-1-1h-26zm1 2h24v10.502c-1.048 0.765-4.178 2.8917-7.998 4.0117 0.642-1.179 1.3265-2.5584 1.4785-3.3164 0.059-0.294-0.018031-0.59908-0.20703-0.83008-0.191-0.232-0.47344-0.36719-0.77344-0.36719h-16.5v-10zm31.121 0.82227c2.257 0.936 3.9023 3.7997 3.9023 7.1777 0 3.456-1.7235 6.3733-4.0605 7.2383 0.458-1.673 1.0605-4.4913 1.0605-7.7383 0-3.055-0.46734-5.2737-0.90234-6.6777zm-38.262 1c-0.436 1.403-0.90234 3.6227-0.90234 6.6777 0 3.247 0.60255 6.0653 1.0605 7.7383-2.337-0.865-4.0605-3.7823-4.0605-7.2383 0-3.378 1.6453-6.2417 3.9023-7.1777zm12.641 0.17773c-1.402 0-2.5 1.317-2.5 3s1.098 3 2.5 3 2.5-1.317 2.5-3-1.098-3-2.5-3zm13 0c-1.402 0-2.5 1.317-2.5 3s1.098 3 2.5 3 2.5-1.317 2.5-3-1.098-3-2.5-3zm-13 2c0.177 0 0.5 0.38 0.5 1s-0.323 1-0.5 1-0.5-0.38-0.5-1 0.323-1 0.5-1zm13 0c0.177 0 0.5 0.38 0.5 1s-0.323 1-0.5 1-0.5-0.38-0.5-1 0.323-1 0.5-1zm2.877 16.064c0.229 0 0.4553 0.064453 0.6543 0.18945 0.279 0.175 0.47288 0.44848 0.54688 0.77148s0.020703 0.65359-0.1543 0.93359c-0.175 0.279-0.44753 0.47483-0.76953 0.54883h-0.001953l-1.7832 0.41016c-0.661 0.154-1.3285-0.26374-1.4805-0.92774-0.074-0.322-0.01875-0.65259 0.15625-0.93359 0.175-0.279 0.44753-0.47483 0.76953-0.54883l1.7832-0.41016c0.093-0.021 0.1873-0.033203 0.2793-0.033203z" fill="#80cc28"/>
</svg>
